clinic/img/icons/main_page/pils.svg

<svg width="80" height="80" viewBox="0 0 80 80" fill="none" xmlns="http://www.w3.org/2000/svg">
<path d="M56.4991 79.371C64.6076 79.371 71.1809 72.7977 71.1809 64.6891C71.1809 56.5805 64.6076 50.0072 56.4991 50.0072C48.3905 50.0072 41.8172 56.5805 41.8172 64.6891C41.8172 72.7977 48.3905 79.371 56.4991 79.371Z" fill="#F9F3F1"/>
<path d="M66.88 75.0707C61.1466 80.8041 51.8514 80.8041 46.118 75.0707C45.9117 74.8645 45.712 74.6518 45.5219 74.4361C51.2553 78.5166 59.2617 77.9849 64.4023 72.8444C69.9263 67.3203 70.1277 58.4875 65.0048 52.7218C65.6621 53.1889 66.2903 53.7174 66.88 54.3069C72.615 60.0405 72.615 69.3373 66.88 75.0707Z" fill="#EFE2DD"/>
<path d="M38.6867 6.55873C41.5594 1.12525 48.2928 -0.950595 53.7263 1.92227L74.0707 12.6785C79.504 15.5513 81.5798 22.2846 78.7071 27.7181C75.8344 33.1514 69.101 35.2273 63.6676 32.3546L43.3232 21.5982C37.8898 18.7256 35.814 11.9921 38.6867 6.55873Z" fill="#FEC165"/>
<path d="M78.7076 27.7181C78.6125 27.8986 78.5126 28.0758 78.4047 28.2497C79.6082 23.4023 77.414 18.1796 72.8001 15.7406L52.457 4.9842C47.2037 2.20688 40.7373 4.05463 37.7198 9.08889C37.9325 8.22864 38.253 7.37807 38.6864 6.5581C41.5588 1.1243 48.2926 -0.950605 53.7263 1.92179L74.0712 12.6782C79.5036 15.5505 81.58 22.2843 78.7076 27.7181Z" fill="#FDB441"/>
<path d="M53.4954 26.9762L63.8985 7.30017L74.0707 12.6784C79.504 15.5511 81.5799 22.2845 78.7071 27.718C75.8344 33.1513 69.101 35.2271 63.6676 32.3544L53.4954 26.9762Z" fill="#6BD9E7"/>
<path d="M78.7076 27.7181C78.6544 27.8196 78.598 27.9195 78.5417 28.0194C78.4981 28.0967 78.4514 28.1741 78.4047 28.2498C79.6082 23.4024 77.414 18.1797 72.8001 15.7407L62.3563 10.2184L63.898 7.3009L74.0713 12.6783C79.5036 15.5504 81.58 22.2843 78.7076 27.7181Z" fill="#2ED1E2"/>
<path d="M35.0597 29.9712C39.4433 34.2793 39.5043 41.3251 35.1964 45.7086L19.0655 62.1218C14.7573 66.5053 7.71154 66.5664 3.328 62.2584C-1.05554 57.9503 -1.11659 50.9045 3.19139 46.5209L19.3221 30.1078C23.6303 25.7242 30.6762 25.663 35.0597 29.9712Z" fill="#7ACAA6"/>
<path d="M3.32769 62.2588C3.18203 62.1161 3.04089 61.9697 2.90506 61.8164C7.20507 64.3572 12.8373 63.7502 16.4952 60.0278L32.6256 43.6157C36.7907 39.3774 36.8716 32.6528 32.9119 28.3204C33.6752 28.7705 34.3986 29.3212 35.0601 29.9711C39.4441 34.279 39.5042 41.3249 35.1964 45.7089L19.0655 62.1225C14.7581 66.5048 7.7117 66.5667 3.32769 62.2588Z" fill="#57BE92"/>
<path d="M11.2568 38.3143L27.1309 53.9152L19.0655 62.1218C14.7573 66.5053 7.71153 66.5664 3.328 62.2584C-1.05554 57.9503 -1.11659 50.9045 3.19139 46.5209L11.2568 38.3143Z" fill="#EE6161"/>
<path d="M3.32769 62.259C3.24573 62.179 3.1661 62.0963 3.08663 62.0137C3.02496 61.9498 2.96423 61.883 2.90506 61.8165C7.20507 64.3573 12.8373 63.7503 16.4952 60.0279L24.7765 51.6023L27.1304 53.9147L19.0655 62.1225C14.7581 66.5049 7.7117 66.5668 3.32769 62.259Z" fill="#E94444"/>
<path d="M61.7674 71.1283C61.4676 71.1283 61.168 71.014 60.9393 70.7853L50.4028 60.2487C49.9455 59.7914 49.9455 59.05 50.4028 58.5928C50.8604 58.1356 51.6017 58.1356 52.0589 58.5928L62.5953 69.1294C63.0526 69.5867 63.0526 70.3282 62.5953 70.7853C62.3667 71.0139 62.067 71.1283 61.7674 71.1283Z" fill="#CDBFBA"/>
</svg>

<svg width="80" height="80" fill="none" xmlns="http://www.w3.org/2000/svg"><path d="M56.5 79.371c8.108 0 14.68-6.573 14.68-14.682 0-8.108-6.572-14.682-14.68-14.682-8.11 0-14.683 6.574-14.683 14.682 0 8.109 6.574 14.682 14.682 14.682z" fill="#F9F3F1"/><path d="M66.88 75.07c-5.733 5.734-15.029 5.734-20.762 0a13.802 13.802 0 01-.596-.634c5.733 4.08 13.74 3.549 18.88-1.592 5.524-5.524 5.726-14.356.603-20.122a14.67 14.67 0 011.875 1.585c5.735 5.733 5.735 15.03 0 20.764z" fill="#EFE2DD"/><path d="M38.687 6.559c2.872-5.434 9.606-7.51 15.04-4.637L74.07 12.678c5.433 2.873 7.509 9.607 4.636 15.04s-9.606 7.51-15.04 4.637L43.324 21.598c-5.433-2.872-7.509-9.606-4.636-15.04z" fill="#FEC165"/><path d="M78.708 27.718c-.096.18-.195.358-.303.532 1.203-4.848-.991-10.07-5.605-12.51L52.457 4.985c-5.253-2.777-11.72-.93-14.737 4.105.212-.86.533-1.71.966-2.53 2.873-5.435 9.607-7.51 15.04-4.637l20.345 10.756c5.433 2.872 7.509 9.606 4.637 15.04z" fill="#FDB441"/><path d="M53.495 26.976L63.9 7.3l10.172 5.378c5.433 2.873 7.509 9.607 4.636 15.04s-9.606 7.51-15.04 4.636l-10.172-5.378z" fill="#6BD9E7"/><path d="M78.708 27.718c-.054.102-.11.201-.166.301a5.81 5.81 0 01-.137.23c1.203-4.847-.991-10.07-5.605-12.508l-10.444-5.523 1.542-2.917 10.173 5.377c5.433 2.872 7.509 9.606 4.637 15.04z" fill="#2ED1E2"/><path d="M35.06 29.971c4.383 4.308 4.444 11.354.136 15.738l-16.13 16.413c-4.309 4.383-11.354 4.444-15.738.136s-4.445-11.354-.137-15.737l16.131-16.413c4.308-4.384 11.354-4.445 15.738-.137z" fill="#7ACAA6"/><path d="M3.328 62.259a8.65 8.65 0 01-.423-.443c4.3 2.541 9.932 1.934 13.59-1.788l16.13-16.412c4.166-4.239 4.247-10.963.287-15.296.763.45 1.487 1.001 2.148 1.651 4.384 4.308 4.444 11.354.136 15.738l-16.13 16.413c-4.308 4.383-11.354 4.445-15.738.137z" fill="#57BE92"/><path d="M11.257 38.314L27.13 53.915l-8.066 8.207c-4.308 4.383-11.353 4.444-15.737.136s-4.445-11.354-.137-15.737l8.066-8.207z" fill="#EE6161"/><path d="M3.328 62.259a10.958 10.958 0 01-.423-.443c4.3 2.541 9.932 1.934 13.59-1.788l8.281-8.426 2.354 2.313-8.064 8.208c-4.308 4.382-11.354 4.444-15.738.136z" fill="#E94444"/><path d="M61.767 71.128c-.3 0-.599-.114-.828-.343L50.403 60.25a1.17 1.17 0 111.656-1.656L62.595 69.13a1.17 1.17 0 01-.828 2z" fill="#CDBFBA"/></svg>
